X:271
T: Hilf, o Himmel, ich muá scheiden (3-73), S. 204
N: P1046
O: Lothringen
S: PINCK, Louis: Verklingende Weisen, Bd3, Metz 1933]
R: Trennung, Treue]
M: 3/4
L: 1/8
K: G
 | d3_ed2 | c2_B2c2 | d4G2 | G4=F2
_B3AB2 | c2_B2c2 | d3c_B2 | A6
G3A_B2 | A4c2 | d3cdG | G4=F2
G3A_B2 | A2d2c2 | _B3GA2 | G6

